static/assets/template/assets/img/icons/essential/detailed/Earth_2.svg

<svg height="150" viewBox="0 0 128 150" width="128" xmlns="http://www.w3.org/2000/svg"><g fill="none" fill-rule="evenodd" transform="translate(1 1)"><path d="m116.5 88.1c-5.5 14.3-16.5 24.9-29.6 30.4-12.4 5.2-26.7 5.8-40.2.5s-23.7-15.3-29.4-27.4c-6-12.9-7-28.1-1.5-42.4 5.4-14 16-24.5 28.8-30 12.6-5.5 27.2-6.2 41-.9s24.2 15.7 29.8 28.2c5.7 12.7 6.5 27.6 1.1 41.6z" fill-rule="nonzero"/><path d="m115.8 90.1c-5.3 13.7-15.8 23.9-28.4 29.2-11.9 5-25.7 5.5-38.7.5s-22.8-14.7-28.3-26.4c-2.8-6-4.5-12.5-4.9-19.2-.4-7.1.7-14.4 3.4-21.5 5.2-13.5 15.4-23.5 27.7-28.9 12.1-5.3 26.2-6 39.4-.8 13.1 5 22.9 14.8 28.4 26.6.1.2.2.4.3.6 5.5 12.1 6.3 26.4 1.1 39.9z" fill-rule="nonzero"/><path d="m111 71c-5.3 13.7-15.8 23.9-28.4 29.2-11.9 5-25.7 5.5-38.7.5s-22.8-14.7-28.3-26.4c0-.1-.1-.1-.1-.2-.4-7.1.7-14.4 3.4-21.5 5.2-13.5 15.4-23.5 27.7-28.9 12.1-5.3 26.2-6 39.4-.8 13.1 5 22.9 14.8 28.4 26.6.4 7.1-.7 14.5-3.4 21.5z" fill-rule="nonzero"/><g stroke-linecap="round" stroke-linejoin="round" stroke-width="2.8071"><path d="m44.6 19.2c12.6-5.5 27.2-6.2 41-.9s24.2 15.7 29.8 28.2c5.7 12.7 6.5 27.6 1.1 41.6-5.5 14.3-16.5 24.9-29.6 30.4-12.4 5.2-26.7 5.8-40.2.5s-23.7-15.3-29.4-27.4c-6-12.9-7-28.1-1.5-42.4 3.7-9.7 9.9-17.6 17.6-23.5"/><path d="m38.4 22.4c.1-.1.3-.2.4-.3"/><path d="m14.9 28.1c3.7-4.7 8.1-8.9 12.9-12.4"/><path d="m42.6 129.7c-16.4-6.3-28.7-18.5-35.6-33.2-7.3-15.6-8.5-34-1.8-51.3 1.7-4.5 3.9-8.7 6.4-12.5"/><path d="m125.3 96.5c-7.1 15.2-19.5 26.5-34 32.5-12.7 5.3-27 6.6-41 3.1"/><path d="m54.3 48.1c10.3-20.2 23.1-32.9 31.3-29.8 9.9 3.8 9.2 29.5-1.5 57.3s-27.4 47.3-37.3 43.4-9.2-29.5 1.5-57.3c.8-2.2 1.7-4.3 2.6-6.4"/><path d="m115.4 46.5c-12.6 5.5-27.2 6.2-41 .9s-24.2-15.7-29.8-28.2c12.6-5.5 27.2-6.2 41-.9s24.2 15.8 29.8 28.2z"/><path d="m82.9 111.3c1.5 2.3 2.9 4.7 4 7.2-12.4 5.2-26.7 5.8-40.2.5s-23.7-15.3-29.4-27.4c12.4-5.2 26.7-5.8 40.2-.5 7.2 2.8 13.4 6.9 18.5 12"/><path d="m80.3 107.7c.1.1.2.2.2.3"/><path d="m116.5 88.1-100.7-38.8"/><path d="m36 146.8 56.5-146.5"/></g></g></svg>

<?xml version="1.0" encoding="UTF-8"?>
<svg width="128px" height="150px" viewBox="0 0 128 150" version="1.1" xmlns="http://www.w3.org/2000/svg" xmlns:xlink="http://www.w3.org/1999/xlink">
    <!-- Generator: Sketch 51.2 (57519) - http://www.bohemiancoding.com/sketch -->
    <title>Earth_2</title>
    <desc>Created with Sketch.</desc>
    <defs></defs>
    <g id="Page-1" stroke="none" stroke-width="1" fill="none" fill-rule="evenodd">
        <g id="Earth_2" transform="translate(1.000000, 1.000000)">
            <path d="M116.5,88.1 C111,102.4 100,113 86.9,118.5 C74.5,123.7 60.2,124.3 46.7,119 C33.2,113.7 23,103.7 17.3,91.6 C11.3,78.7 10.3,63.5 15.8,49.2 C21.2,35.2 31.8,24.7 44.6,19.2 C57.2,13.7 71.8,13 85.6,18.3 C99.4,23.6 109.8,34 115.4,46.5 C121.1,59.2 121.9,74.1 116.5,88.1 Z" id="Shape" class="fill-neutral" fill-rule="nonzero"></path>
            <path d="M115.8,90.1 C110.5,103.8 100,114 87.4,119.3 C75.5,124.3 61.7,124.8 48.7,119.8 C35.7,114.8 25.9,105.1 20.4,93.4 C17.6,87.4 15.9,80.9 15.5,74.2 C15.1,67.1 16.2,59.8 18.9,52.7 C24.1,39.2 34.3,29.2 46.6,23.8 C58.7,18.5 72.8,17.8 86,23 C99.1,28 108.9,37.8 114.4,49.6 C114.5,49.8 114.6,50 114.7,50.2 C120.2,62.3 121,76.6 115.8,90.1 Z" id="Shape" class="fill-primary-500" fill-rule="nonzero"></path>
            <path d="M111,71 C105.7,84.7 95.2,94.9 82.6,100.2 C70.7,105.2 56.9,105.7 43.9,100.7 C30.9,95.7 21.1,86 15.6,74.3 C15.6,74.2 15.5,74.2 15.5,74.1 C15.1,67 16.2,59.7 18.9,52.6 C24.1,39.1 34.3,29.1 46.6,23.7 C58.7,18.4 72.8,17.7 86,22.9 C99.1,27.9 108.9,37.7 114.4,49.5 C114.8,56.6 113.7,64 111,71 Z" id="Shape" class="fill-primary-300" fill-rule="nonzero"></path>
            <path d="M44.6,19.2 C57.2,13.7 71.8,13 85.6,18.3 C99.4,23.6 109.8,34 115.4,46.5 C121.1,59.2 121.9,74.1 116.5,88.1 C111,102.4 100,113 86.9,118.5 C74.5,123.7 60.2,124.3 46.7,119 C33.2,113.7 23,103.7 17.3,91.6 C11.3,78.7 10.3,63.5 15.8,49.2 C19.5,39.5 25.7,31.6 33.4,25.7" id="Shape" class="stroke-primary" stroke-width="2.8071" stroke-linecap="round" stroke-linejoin="round"></path>
            <path d="M38.4,22.4 C38.5,22.3 38.7,22.2 38.8,22.1" id="Shape" class="stroke-primary" stroke-width="2.8071" stroke-linecap="round" stroke-linejoin="round"></path>
            <path d="M14.9,28.1 C18.6,23.4 23,19.2 27.8,15.7" id="Shape" class="stroke-primary" stroke-width="2.8071" stroke-linecap="round" stroke-linejoin="round"></path>
            <path d="M42.6,129.7 C26.2,123.4 13.9,111.2 7,96.5 C-0.3,80.9 -1.5,62.5 5.2,45.2 C6.9,40.7 9.1,36.5 11.6,32.7" id="Shape" class="stroke-primary" stroke-width="2.8071" stroke-linecap="round" stroke-linejoin="round"></path>
            <path d="M125.3,96.5 C118.2,111.7 105.8,123 91.3,129 C78.6,134.3 64.3,135.6 50.3,132.1" id="Shape" class="stroke-primary" stroke-width="2.8071" stroke-linecap="round" stroke-linejoin="round"></path>
            <path d="M54.3,48.1 C64.6,27.9 77.4,15.2 85.6,18.3 C95.5,22.1 94.8,47.8 84.1,75.6 C73.4,103.4 56.7,122.9 46.8,119 C36.9,115.1 37.6,89.5 48.3,61.7 C49.1,59.5 50,57.4 50.9,55.3" id="Shape" class="stroke-primary" stroke-width="2.8071" stroke-linecap="round" stroke-linejoin="round"></path>
            <path d="M115.4,46.5 C102.8,52 88.2,52.7 74.4,47.4 C60.6,42.1 50.2,31.7 44.6,19.2 C57.2,13.7 71.8,13 85.6,18.3 C99.4,23.6 109.8,34.1 115.4,46.5 Z" id="Shape" class="stroke-primary" stroke-width="2.8071" stroke-linecap="round" stroke-linejoin="round"></path>
            <path d="M82.9,111.3 C84.4,113.6 85.8,116 86.9,118.5 C74.5,123.7 60.2,124.3 46.7,119 C33.2,113.7 23,103.7 17.3,91.6 C29.7,86.4 44,85.8 57.5,91.1 C64.7,93.9 70.9,98 76,103.1" id="Shape" class="stroke-primary" stroke-width="2.8071" stroke-linecap="round" stroke-linejoin="round"></path>
            <path d="M80.3,107.7 C80.4,107.8 80.5,107.9 80.5,108" id="Shape" class="stroke-primary" stroke-width="2.8071" stroke-linecap="round" stroke-linejoin="round"></path>
            <path d="M116.5,88.1 L15.8,49.3" id="Shape" class="stroke-primary" stroke-width="2.8071" stroke-linecap="round" stroke-linejoin="round"></path>
            <path d="M36,146.8 L92.5,0.3" id="Shape" class="stroke-primary" stroke-width="2.8071" stroke-linecap="round" stroke-linejoin="round"></path>
        </g>
    </g>
</svg>
